**kern	**kern	**dynam
*part1	*part1	*part1
*staff2	*staff1	*
*I"Piano	*	*
*clefF4	*clefG2	*
*k[f#c#g#]	*k[f#c#g#]	*
=1	=1	=1
*^	*^	*
2E#X	(2AA#X	(2a#X	2c##X	pp <
*v	*v	*	*	*
*	*v	*v	*
2DD#X) 2D#X	2f#) 2a# 2ff#	.
=	=	=
2DDn 2Dn	2e#X 2a#X 2ee#X	[
2CC# 2C#	2b 2ee# 2bb	>
=	=	=
(2FFF# 2FF#	(2a#X 2ff# 2aa#X	] pp
2DD#X 2D#X	2a# 2ff# 2aa#	.
=	=	=
2DDn 2Dn	2a#X 2ff# 2aa#X	.
2CC# 2C#	2a# 2ff# 2aa#	.
=	=	=
2CCn 2Cn	2a#X 2ff# 2aa#X	.
2BBB 2BB	2dd 2gg# 2ddd	.
=	=	=
1FFF#) 1FF#	1cc#) 1aa#X 1ccc#	.
=	=	=
1FFF# 1FF#	1c# 1a#X 1cc#	.
=	=	=
1FFF# 1FF#	1C#< 1A#X< 1c#<	.
==	==	==
*-	*-	*-
!!!system-decoration: {(s1,s2)}
!!!RDF**kern: < = below
